X:1
T:Surrexit Christus III
T:André Vierendeels
T:(02/03/18)
T:Early melody
T:Surrexit Christus III
T:ad voces aequales
T:©
T:©
T:©
C:André Vierendeels
Z:©
%%score [ 1 2 3 ]
L:1/8
Q:1/4=120
M:3/4
K:D
V:1 treble-8 nm="Tenor 1" snm="T 1"
V:2 treble-8 nm="Tenor 2" snm="T 2"
V:3 bass nm="Bass" snm="B"
V:1
 z2 z2 d2 | d4 d2 | c3 d e2 | d2 c2 B2 | !fermata!A4 A2 | B3 c d2 | c4 B2 | A4 G2 | %8
w: Sur-|re- xit|Chri- * stus|ho- * di-|e, Al-|le- * lu-|ia, Al-|le- lu-|
w: Mor-|tem qui|pas- * sus|pri- * di-|e, _|_ _ _|||
 !fermata!F4 E2 | F4 G2 | A4 G2 | F4 E2 | !fermata!D4 E2 | F4 G2 | F2 E4 | D6 | !fermata!F4 G2 | %17
w: ia, hu-|ma- no|pro so-|la- mi-|ne, Al-|le- *|* lu-||ia, Al-|
w: * mi-|ser- ri-|mo pro|ho- mi-|ne, _|_ _||||
 F2 D2 A2 | A2 G2 B2 | cA Bc BG | !fermata!F6 |] %21
w: le- lu- ia,|Al- le- *|lu- * * * * *|ia.|
w: ||||
V:2
 z2 z2 A2 | B4 F2 | EF GB A2 | B2 A2 G2 | !fermata!F4 F2 | D4 G2 | E4 D2 | E4 E2 | !fermata!D4 E2 | %9
w: Sur-|re- xit|Chri- * * * stus|ho- * di-|e, Al-|le- lu-|ia, Al-|le- lu-|ia, hu-|
w: Mu-|li- e-|res _ _ _ ad|tu- * mu-|li, _|_ _|||* do-|
 D4 D2 | F4 D2 | D4 C2 | !fermata!B,4 C2 | D6 | D4 C2 | D6 | !fermata!D4 D2 | D4 C2 | F2 D4 | %19
w: ma- no|pro so-|la- mi-|ne, Al-|le-|lu- *||ia, Al-|le- lu-|ia, Al-|
w: na fe-|runt a-|ro- ma-|tum, _|_||||||
 E4 D2 | !fermata!D6 |] %21
w: le- lu-|ia.|
w: ||
V:3
 z2 z2 D,2 | G,,4 D,2 | A,,3 D, C,A,, | G,,2 A,,2 B,,2 | !fermata!D,4 D,2 | G,,4 G,,B,, | %6
w: Sur-|re- xit|Chri- * stus _|ho- * di-|e, Al-|le- lu- *|
w: Al-|bum cer-|nen- * tes _|an- * ge-|lum, _|_ _ _|
 A,,C, B,,A,, G,,2 | A,,4 =C,2 | !fermata!D,4 C,2 | B,,2 D,2 G,,2 | D,4 G,,2 | B,,2 D,2 A,,2 | %12
w: ia, _ _ _ Al-|le- lu-|ia, hu-|ma- * no|pro so-|la- * mi-|
w: ||* a-|nun- * ti-|an- te|gau- * di-|
 !fermata!G,,4 A,,2 | D,2 B,,4 | D,C, A,,G,, A,,2 | D,6 | !fermata!D,4 G,,2 | B,,2 A,,2 E,2 | %18
w: ne, Al-|le- *|lu- * * * *||ia, Al-|le- * lu-|
w: um, _|_ _|||||
 D,2 G,,2 G,,2 | A,,4 B,,2 | !fermata!D,6 |] %21
w: * ia, Al-|le- lu-|ia.|
w: |||

